X: 1052
T: PALMER'S QUICK-STEP
B: Oliver Ditson "The Boston Collection of Instrumental Music" 1910 p.105 #2
F: http://conquest.imslp.info/files/imglnks/usimg/8/8f/IMSLP175643-PMLP309456-bostoncollection00bost_bw.pdf
%: 2012 John Chambers <jc:trillian.mit.edu>
M: 6/8
L: 1/8
K: C
G |\
cBc e2d | cBc e2d | cBc edc | dBG G2G |\
cBc e2d | cBc g2f | edc GAB | c3  c2 :|
|: z |\
gfe a2g | fed g2f | edc cde | fef d2e |\
gfe a2g | fed g2f | edc GAB | c3  c2 :|

%%sep 1 1 500
%%sep 1 1 500
